X: 7
T: The Tap Room
R: reel
M: 4/4
L: 1/8
K: Edor
~E3G BEGB|dBAF DEFD|~E3G BEGB|dBAF BEED|~E3G BEGB|dBAF DEFD|a2ge fdec|1 dBAF BEED:|2 dBAF BE~E2|||:~e3f gfec|dBAF DEFD|~e3f gfec|dBAF BE~E2|~e3f gfec|d2ce d2fg|afge fdec|1 dBAF BE~E2:|2 dBAF BEED||


Tune 711	Setting 24969

